X: 1
T: Meeting of the Waters   [D]
M: C
Z: 2016 John Chambers <jc:trillian.mit.edu>
R: march
K: D
AB |\
   "D"d2df | A2d>c | "G"BdBG | "D"A2d>e |\
[1 "D"faAa | gfed | "E7"f3g/f/ | "A"e2 :|\
[2 "D"fagf | "A7"gAce | "D"d2"G"d>e | "D"d2 |]
|: a>g |\
   "D"f2a>g | fafA | "G"BdgB | "D"A2d>e |\
[1 "D"faAa  | gfed | "E7"f2e2 | "A"e2 :|\
[2 "D"fagf  | "A7"gAce | "D"d2"G"d>e | "D"d2 |]
